svgs/sharp-regular/boot-heeled.svg

<svg xmlns="http://www.w3.org/2000/svg" viewBox="0 0 512 512"><!--! Font Awesome Pro 6.6.0 by @fontawesome - https://fontawesome.com License - https://fontawesome.com/license (Commercial License) Copyright 2024 Fonticons, Inc. --><path d="M272 48l0 240 208 96 0 80 8 0 24 0 0 48-24 0-8 0-48 0-88 0-24 0-48 0-96-32-48-16 0 16 0 32-7.8 0L80 512l-32 0L0 512l0-48 0-80L24 256 0 64 0 48 0 0 48 0 224 0l48 0 0 48zM143.2 418.5L279.8 464l40.2 0 24 0 88 0 0-49.3L251.9 331.6 224 318.7l0-30.7 0-240-80 0 0 184 0 24-48 0 0-24L96 48 48 48l0 13L71.6 250l.9 7.4-1.4 7.4L48 388.5 48 416l79.8 0c5.2 0 10.3 .8 15.4 2.5z"/></svg>

<svg xmlns="http://www.w3.org/2000/svg" viewBox="0 0 512 512"><!--! Font Awesome Pro 6.4.0 by @fontawesome - https://fontawesome.com License - https://fontawesome.com/license (Commercial License) Copyright 2023 Fonticons, Inc. --><path d="M272 48V288l208 96v80h8 24v48H488h-8H432 344 320 272l-96-32-48-16v16 32h-7.8H80 48 0V464 384L24 256 0 64V48 0H48 224h48V48zM143.2 418.5L279.8 464H320h24 88V414.7L251.9 331.6 224 318.7V288 48H144V232v24H96V232 48H48V61L71.6 250l.9 7.4-1.4 7.4L48 388.5V416h79.8c5.2 0 10.3 .8 15.4 2.5z"/></svg>
